X: 18294
T: Humours Of Tralibane, The
R: jig
M: 6/8
K: Amixolydian
a/f/|:ecA Ace|dBG GBd|cBA dcB|cBA a2f|
ecA Ace|dBG GBd|cBA edB|cAA ~A2:|
|:d|efg efg|daf ged|efg efg|bag a2 d|
efg efg|dBG GAB|=cBA edB|=cAA ~A2:|

